src/lib/packages/icons/src/assets/filled/sign-direction-left.svg

<svg width="24" height="24" viewBox="0 0 24 24" fill="none" xmlns="http://www.w3.org/2000/svg">
<path d="M20 6.84595V11.1541C20 12.3851 19.385 13 18.154 13H8.20701C7.80901 13 7.428 12.842 7.146 12.561L4.292 9.70703C3.901 9.31703 3.901 8.68297 4.292 8.29297L7.146 5.43896C7.427 5.15796 7.80901 5 8.20701 5H12.25V3C12.25 2.59 12.59 2.25 13 2.25C13.41 2.25 13.75 2.59 13.75 3V5H18.154C19.385 5 20 5.61495 20 6.84595ZM16 20.25H13.75V14.5H12.25V20.25H10C9.58601 20.25 9.25001 20.586 9.25001 21C9.25001 21.414 9.58601 21.75 10 21.75H16C16.414 21.75 16.75 21.414 16.75 21C16.75 20.586 16.414 20.25 16 20.25Z" fill="currentColor"/>
</svg>

<svg xmlns="http://www.w3.org/2000/svg" width="24" height="24" fill="none"><path fill="currentColor" d="M20 6.846v4.308C20 12.385 19.385 13 18.154 13H8.207c-.398 0-.779-.158-1.061-.439L4.292 9.707a.999.999 0 0 1 0-1.414l2.854-2.854A1.5 1.5 0 0 1 8.207 5h4.043V3c0-.41.34-.75.75-.75s.75.34.75.75v2h4.404C19.385 5 20 5.615 20 6.846ZM16 20.25h-2.25V14.5h-1.5v5.75H10a.75.75 0 0 0 0 1.5h6a.75.75 0 0 0 0-1.5Z"/></svg>
